X:1
T:Creep
C:Radiohead
N:Giddily
M:4/4
L:1/8
Q:1/4=93
K:G

zG, D2 G,D2G,|D2 G,D2B, G,3/2z/2|zF, ^D2 B,^D2B,|E2 B,^D2B, F,3/2z/2|
zG, E2 CE2C|=F2 CE2C G,3/2z/2|zG, ^D2 C^D2C|=F2 C^D/2=D/2 AG G,G-|
GG, D2 G,D2G,|D2 G,3/2D/2 AB, G,/2G/2^F-|FF, ^D2 B,^D2B,|E2 B,^D/2A/2 AB, F,G-|
GG,/2E3/2=D CE2z|=F2 zE/2D/2 AG G,G-|GG, ^D2 C^D2C|=F2 C3/2^D/2 AC G,G-|
G=D2C/2B,/2 G,D2G,|D2 (3G,DD A/2A/2B, G,^F-|FF, ^D2 B,^D2B,|E2 B,/2A/2^D AB, GB-|
BG, E2 CE2C|=F2 CE/2G/2 GC G,^A-|^AG, ^D2 C^D2C|=F2 C^D/2G/2 GB G,B|
BG, =D2 G,D2G,|D2 G,(3DGGB G,B-|B/2^F/2F, ^DE B,^D2B,|E2 B,/2B/2^D/2B/2 cB, F,/2=AB/2-|
BG, E2 CE2C|=F2 CE GC G,^A-|^AG, ^D2 C^D2C|=F2 C^D/2=D/2 BG G,G-|
GG, D2 G,D2G,|D2 G,3/2D/2 =A/2A/2B, G,^F-|FF, ^D2 B,^D2B,|E2 B,^D/2A/2 A/2A/2B, F,G-|
GG,/2E3/2=D CE2z|=F2 zE/2D/2 A/2A/2G ^FG-|GG, ^D2 C^D2C|=F2 C3/2^D/2 AC G,G-|
G=D2C G,D2G,|D2 G,D AG G,^F-|FF, ^D2 B,^D2B,|E2 B,^D/2A/2 AB, F,B-|
BG, E2 CE2C|=F2 CE/2G/2 GC G,^A-|^AG, ^D2 C^D2C|=F2 C^D/2G/2 GB G,B-|
BG, =D2 G,D2G,|D2 G,D/2G/2 GB, G,B-|BF, ^D3/2E/2 ^D3B,|E2 B,^D/2zc/2B F,/2=AB/2-|
BG, E2 CE2C|=F2 CE GC G,^A-|^AG, ^D2 C^D2C|=Fc C^D2C G,2|
GG, =D2 G,D2G,|D2 G,D2D G,^D-|^DF, ^DB B,^D2B,/2G/2|^F2 B,^D2B, F,2|
GG, E2 CE2C|=F2 CE2=D G,^D-|^DG, z2 =F^D2C|G2 C^D =AC G,2|
AG, =D2 G,D2G,|G2 G,D ^FB, G,F-|FF, ^D2 B,^D2B,|E2 B,^D2B, F,2|
AG, E2 CE2C|=F2 CE ^FC GG-|G8-|G2 z=D AG FG-|
GG, DC/2B,/2 G,D2G,|D2 G,D A/2A/2B, G,F-|FF, ^D2 B,^D2B,|E2 B,^D AB, F,3/2B/2-|
BG E2 CE2C|=F2 CE/2G/2 GC G,^A-|^AG, ^D2 C^D2C|=F2 C^D2B G,B-|
BG, =D2 G,D2G,|D2 G,D/2G/2 GB, G,B-|BF, ^D3/2E/2 ^D3B,|E2 B,^D/2zc/2B F,/2=AB/2-|
BG, E2 CE2C|=F2 CE GC G,^A-|^AG4-G3/2z3/2|z4 G=A GB|
G,G3/2A,2B,3-B,/2-|B,2- B,/2
